assets/images/members/microsec/microsec.svg

<svg xmlns="http://www.w3.org/2000/svg" viewBox="0 0 383 38"><style>.shp0{fill:#000}</style><g id="Microsec"><path id="Layer" d="M28.38 11.12h-7.86l-7.04 26.23H.4L10.26.66H57.4c3.87 0 5.8 1.87 5.8 5.64 0 1.38-.25 2.98-.75 4.82l-7.02 26.23h-13.1l6.69-24.92c.04-.17.07-.33.07-.46 0-.57-.35-.85-1.05-.85h-6.55l-7.02 26.23h-13.1z" class="shp0"/><path d="m82.85.66-9.83 36.69H59.95L69.76.66zM126.59 26.86l-2.82 10.48H84.46c-3.87 0-5.8-1.89-5.8-5.67 0-1.38.25-2.98.75-4.82l4.19-15.72C85.48 4.16 89.04.67 94.28.65h39.31l-2.82 10.48H98.01c-.87 0-1.42.44-1.64 1.31l-3.54 13.1c-.04.17-.07.33-.07.46 0 .57.35.85 1.05.85h32.78z" class="shp0"/><path fill-rule="evenodd" d="M221.78.66c3.87.02 5.8 1.92 5.8 5.7 0 1.35-.25 2.95-.75 4.78l-4.19 15.72c-1.88 6.99-5.44 10.48-10.68 10.48h-31.45c-3.87 0-5.8-1.89-5.8-5.67 0-1.38.25-2.98.75-4.82l4.19-15.72C181.53 4.16 185.09.67 190.33.65h31.45zm-32.89 24.89c-.04.17-.07.33-.07.46 0 .57.35.85 1.05.85h18.34c.87 0 1.42-.44 1.64-1.31l3.54-13.1c.04-.17.07-.33.07-.46 0-.57-.35-.85-1.05-.85h-18.34c-.87 0-1.42.44-1.64 1.31z" class="shp0"/><path d="M235.35 22.93c-4.13 0-6.19-1.64-6.19-4.91 0-.85.14-1.83.43-2.95l1.05-3.93C232.52 4.17 236.08.68 241.32.66h39.31l-2.82 10.48h-32.76c-.87 0-1.42.44-1.64 1.31l-.36 1.31c-.04.2-.07.36-.07.49 0 .55.34.82 1.02.82h24.89c4.13.02 6.19 1.66 6.19 4.91 0 .87-.14 1.86-.43 2.95l-1.05 3.93c-1.88 6.99-5.44 10.48-10.68 10.48h-39.31l2.82-10.48h32.76c.87 0 1.42-.44 1.64-1.31l.36-1.31c.04-.2.07-.36.07-.49 0-.55-.34-.82-1.02-.82z" class="shp0"/><path fill-rule="evenodd" d="m324.64 26.86-2.82 10.48h-39.31c-3.87 0-5.8-1.89-5.8-5.67 0-1.38.25-2.98.75-4.82l4.19-15.72C283.53 4.16 287.09.67 292.33.65h39.31l-2.82 10.48h-32.76c-.87 0-1.42.44-1.64 1.31l-3.54 13.1c-.04.17-.07.33-.07.46 0 .57.35.85 1.05.85h32.78zm-1.58-3.93h-24.89l2.1-7.86h24.89z" class="shp0"/><path d="m375.66 26.86-2.82 10.48h-39.31c-3.87 0-5.8-1.89-5.8-5.67 0-1.38.25-2.98.75-4.82l4.19-15.72C334.55 4.16 338.11.67 343.35.65h39.31l-2.82 10.48H347.1c-.87 0-1.42.44-1.64 1.31l-3.54 13.1c-.04.17-.07.33-.07.46 0 .57.35.85 1.05.85h32.76zM157.73.66q-6.015.03-9.09 6.12l1.65-6.12H137.8l-9.82 36.69h13.16l6.6-24.86q.33-1.32 1.65-1.32h27.09L179.3.66z" class="shp0"/></g></svg>

<svg xmlns="http://www.w3.org/2000/svg" viewBox="0 0 383 38">
	<style>
		tspan { white-space: pre }
		.shp0 { fill: #000000 } 
	</style>
	<g id="Microsec">
		<path id="Layer" class="shp0" d="M28.38 11.12L20.52 11.12L13.48 37.35L0.4 37.35L10.26 0.66L57.4 0.66C61.27 0.66 63.2 2.53 63.2 6.3C63.2 7.68 62.95 9.28 62.45 11.12L55.43 37.35L42.33 37.35L49.02 12.43C49.06 12.26 49.09 12.1 49.09 11.97C49.09 11.4 48.74 11.12 48.04 11.12L41.49 11.12L34.47 37.35L21.37 37.35L28.38 11.12Z" />
		<path id="Layer" class="shp0" d="M82.85 0.66L73.02 37.35L59.95 37.35L69.76 0.66L82.85 0.66Z" />
		<path id="Layer" class="shp0" d="M126.59 26.86L123.77 37.34L84.46 37.34C80.59 37.34 78.66 35.45 78.66 31.67C78.66 30.29 78.91 28.69 79.41 26.85L83.6 11.13C85.48 4.16 89.04 0.67 94.28 0.65L133.59 0.65L130.77 11.13L98.01 11.13C97.14 11.13 96.59 11.57 96.37 12.44L92.83 25.54C92.79 25.71 92.76 25.87 92.76 26C92.76 26.57 93.11 26.85 93.81 26.85L126.59 26.85L126.59 26.86Z" />
		<path id="Layer" fill-rule="evenodd" class="shp0" d="M221.78 0.66C225.65 0.68 227.58 2.58 227.58 6.36C227.58 7.71 227.33 9.31 226.83 11.14L222.64 26.86C220.76 33.85 217.2 37.34 211.96 37.34L180.51 37.34C176.64 37.34 174.71 35.45 174.71 31.67C174.71 30.29 174.96 28.69 175.46 26.85L179.65 11.13C181.53 4.16 185.09 0.67 190.33 0.65L221.78 0.65L221.78 0.66ZM188.89 25.55C188.85 25.72 188.82 25.88 188.82 26.01C188.82 26.58 189.17 26.86 189.87 26.86L208.21 26.86C209.08 26.86 209.63 26.42 209.85 25.55L213.39 12.45C213.43 12.28 213.46 12.12 213.46 11.99C213.46 11.42 213.11 11.14 212.41 11.14L194.07 11.14C193.2 11.14 192.65 11.58 192.43 12.45L188.89 25.55Z" />
		<path id="Layer" class="shp0" d="M235.35 22.93C231.22 22.93 229.16 21.29 229.16 18.02C229.16 17.17 229.3 16.19 229.59 15.07L230.64 11.14C232.52 4.17 236.08 0.68 241.32 0.66L280.63 0.66L277.81 11.14L245.05 11.14C244.18 11.14 243.63 11.58 243.41 12.45L243.05 13.76C243.01 13.96 242.98 14.12 242.98 14.25C242.98 14.8 243.32 15.07 244 15.07L268.89 15.07C273.02 15.09 275.08 16.73 275.08 19.98C275.08 20.85 274.94 21.84 274.65 22.93L273.6 26.86C271.72 33.85 268.16 37.34 262.92 37.34L223.61 37.34L226.43 26.86L259.19 26.86C260.06 26.86 260.61 26.42 260.83 25.55L261.19 24.24C261.23 24.04 261.26 23.88 261.26 23.75C261.26 23.2 260.92 22.93 260.24 22.93L235.35 22.93Z" />
		<path id="Layer" fill-rule="evenodd" class="shp0" d="M324.64 26.86L321.82 37.34L282.51 37.34C278.64 37.34 276.71 35.45 276.71 31.67C276.71 30.29 276.96 28.69 277.46 26.85L281.65 11.13C283.53 4.16 287.09 0.67 292.33 0.65L331.64 0.65L328.82 11.13L296.06 11.13C295.19 11.13 294.64 11.57 294.42 12.44L290.88 25.54C290.84 25.71 290.81 25.87 290.81 26C290.81 26.57 291.16 26.85 291.86 26.85L324.64 26.85L324.64 26.86ZM323.06 22.93L298.17 22.93L300.27 15.07L325.16 15.07L323.06 22.93Z" />
		<path id="Layer" class="shp0" d="M375.66 26.86L372.84 37.34L333.53 37.34C329.66 37.34 327.73 35.45 327.73 31.67C327.73 30.29 327.98 28.69 328.48 26.85L332.67 11.13C334.55 4.16 338.11 0.67 343.35 0.65L382.66 0.65L379.84 11.13L347.1 11.13C346.23 11.13 345.68 11.57 345.46 12.44L341.92 25.54C341.88 25.71 341.85 25.87 341.85 26C341.85 26.57 342.2 26.85 342.9 26.85L375.66 26.85L375.66 26.86Z" />
		<path id="Layer" class="shp0" d="M157.73 0.66C153.72 0.68 150.69 2.72 148.64 6.78L150.29 0.66L137.8 0.66L127.98 37.35L141.14 37.35L147.74 12.49C147.96 11.61 148.51 11.17 149.39 11.17L176.48 11.17L179.3 0.66L157.73 0.66Z" />
	</g>
</svg>
